X: 536
T: Pan wugeng
L: 1/8
M: 2/4
K: A
AA2B [I:setbarnb 1]| 
c e c B | 
c A B c | 
A2z2 | 
e c e c | 
B c B A | 
F F A C | 
E4 | 
A CE2 | 
E c B c | 
E2F2 | 
A A B c | 
A A B c | 
A4 |]

@@@ Tune index: 9410
